X: 73
T: The Home Ruler
R: hornpipe
M: 4/4
L: 1/8
K: Dmaj
|: AF|D2FA DAFA|dfed B2dB|A2AB AFDE|(3FED ED B,DA,B,|
D2FA DAFA|dfed B2dB|A2AB AFDE|F2D2 D2 :|
|: dB|Addc d3 f|afbf afed|efed BAFA|fded BdA2|
Addc d3 f|afbf afed|efed BAdB|1 AFEF D2:|2 AFEF D4 |]
F: https://thesession.org/tunes/310#setting310

